public/assets/images/shape/shape-2.svg

<svg width="152" height="153" viewBox="0 0 152 153" fill="none" xmlns="http://www.w3.org/2000/svg"> <path fill-rule="evenodd" clip-rule="evenodd" d="M1.05985 60.4719L24.579 19.7355C26.0212 18.4309 27.5134 17.1805 29.0523 15.9875L0.0681935 66.1895C0.327737 64.2599 0.659219 62.3531 1.05985 60.4719ZM0.47364 89.4378C0.294096 88.3852 0.13606 87.3251 0 86.2582L46.4149 5.86524C47.4005 5.45353 48.3965 5.06184 49.4024 4.6907L0.47364 89.4378ZM5.05611 105.451C4.73292 104.662 4.42254 103.866 4.12524 103.064L63.0164 1.06121C63.8558 0.919073 64.6998 0.790606 65.5482 0.676048L5.05611 105.451ZM11.6281 118.019C11.2182 117.386 10.8174 116.747 10.4258 116.101L77.457 0C78.2144 0.0153014 78.9691 0.0416101 79.7209 0.0787727L11.6281 118.019ZM19.5516 128.246C19.0767 127.729 18.6088 127.206 18.1481 126.677L90.4897 1.37729C91.1804 1.51085 91.8678 1.6537 92.5518 1.8057L19.5516 128.246ZM28.559 136.595C28.0288 136.177 27.5042 135.752 26.9854 135.321L102.397 4.70413C103.031 4.93837 103.661 5.18076 104.286 5.43118L28.559 136.595ZM38.5361 143.265C37.9541 142.939 37.3768 142.605 36.8043 142.264L113.311 9.75065C113.893 10.0775 114.47 10.4118 115.042 10.7534L38.5361 143.265ZM49.4581 148.298C48.8238 148.065 48.1934 147.823 47.5671 147.573L123.281 16.4337C123.81 16.8525 124.335 17.2781 124.853 17.7104L49.4581 148.298ZM61.3737 151.61C60.6824 151.478 59.9946 151.336 59.3101 151.184L132.28 24.7971C132.754 25.3145 133.222 25.8385 133.682 26.3688L61.3737 151.61ZM74.4163 152.97C73.6583 152.956 72.903 152.931 72.1506 152.895L140.194 35.0404C140.603 35.6743 141.003 36.3146 141.394 36.9612L74.4163 152.97ZM88.8703 151.886C88.0301 152.03 87.1852 152.16 86.3358 152.276L146.753 47.63C147.075 48.421 147.385 49.2185 147.681 50.0224L88.8703 151.886ZM105.495 147.041C104.508 147.456 103.51 147.851 102.502 148.225L151.315 63.6798C151.493 64.7356 151.649 65.7986 151.783 66.8686L105.495 147.041ZM127.419 133.019C125.967 134.344 124.464 135.613 122.913 136.823L151.66 87.0318C151.392 88.9804 151.049 90.9056 150.637 92.8045L127.419 133.019Z" fill="#EAEFFD"></path> </svg>

<svg xmlns="http://www.w3.org/2000/svg" width="152" height="153" fill="none"><path fill="#EAEFFD" fill-rule="evenodd" d="m1.06 60.472 23.519-40.737a76.918 76.918 0 0 1 4.473-3.747L.068 66.189c.26-1.93.591-3.836.992-5.717ZM.474 89.438A76.36 76.36 0 0 1 0 86.258L46.415 5.865a76.028 76.028 0 0 1 2.987-1.174L.474 89.438Zm4.582 16.013a75.865 75.865 0 0 1-.93-2.387L63.015 1.061c.84-.142 1.684-.27 2.532-.385L5.056 105.451Zm6.572 12.568c-.41-.633-.81-1.272-1.202-1.918L77.457 0c.757.015 1.512.042 2.264.079l-68.093 117.94Zm7.924 10.227a79.49 79.49 0 0 1-1.404-1.569L90.49 1.377c.69.134 1.378.277 2.062.429l-73 126.44Zm9.007 8.349a79.092 79.092 0 0 1-1.574-1.274L102.397 4.704c.634.234 1.264.477 1.889.727L28.559 136.595Zm9.977 6.67c-.582-.326-1.16-.66-1.732-1.001L113.311 9.751c.582.327 1.159.66 1.731 1.002L38.536 143.265Zm10.922 5.033a72.969 72.969 0 0 1-1.89-.725l75.713-131.14c.529.42 1.054.845 1.572 1.277L49.458 148.298Zm11.916 3.312a70.607 70.607 0 0 1-2.064-.426l72.97-126.387c.474.517.942 1.041 1.402 1.572L61.374 151.61Zm13.042 1.36a77.26 77.26 0 0 1-2.265-.075L140.194 35.04c.409.634.809 1.275 1.2 1.921L74.416 152.97Zm14.454-1.084c-.84.144-1.685.274-2.534.39L146.753 47.63c.322.791.632 1.588.928 2.392l-58.81 101.864Zm16.625-4.845c-.987.415-1.985.81-2.993 1.184l48.813-84.545c.178 1.056.334 2.119.468 3.189l-46.288 80.172Zm21.924-14.022a76.42 76.42 0 0 1-4.506 3.804l28.747-49.791a76.171 76.171 0 0 1-1.023 5.773l-23.218 40.214Z" clip-rule="evenodd"/></svg>
